luts/1779158123158-CLassicFilm02.cube
TITLE "17x17x17 Adobe/IRIDAS cube 3D LUT exported with GrossGrade v0.2.2 (beta) 64 bit"
DOMAIN_MIN 0 0 0
DOMAIN_MAX 1 1 1
LUT_3D_SIZE 17
0.000000000 0.001390000 0.000000000
0.020704687 0.010245625 0.000000000
0.084725365 0.008288875 0.000000000
0.149543136 0.007972938 0.000000000
0.216977507 0.008966500 0.000000000
0.287828743 0.009992500 0.000000000
0.359671265 0.010655625 0.000000000
0.430190593 0.010843875 0.000000000
0.498553991 0.010470500 0.000000000
0.565035760 0.009657438 0.000000000
0.630343497 0.008799250 0.000000000
0.695190370 0.008145500 0.000000000
0.760085225 0.007557500 0.000000000
0.825116158 0.007003249 0.000000000
0.887616694 0.006492249 0.000000000
0.936290503 0.005650186 0.000000000
0.974277020 0.004018000 0.000000000
0.000000000 0.036319375 0.016011562
0.017118750 0.046601880 0.014233124
0.082081810 0.048440881 0.001805499
0.154041320 0.047843564 0.000124813
0.223919317 0.049846373 0.000000562
0.295138955 0.052405439 0.000000000
0.366996557 0.054644067 0.000000000
0.437658727 0.056326501 0.000000000
0.506349385 0.057287250 0.000000000
0.573279142 0.057629626 0.000000000
0.639044940 0.057797313 0.000000000
0.704255342 0.058084249 0.000000000
0.769337177 0.058351748 0.000000000
0.834217608 0.058513250 0.000000000
0.895552874 0.058487121 0.000000000
0.940454900 0.058116876 0.000000000
0.978166699 0.057527687 0.000000000
0.000000000 0.075225621 0.031617999
0.014821000 0.087759502 0.027539188
0.070328623 0.094014376 0.004515749
0.155966446 0.095211625 0.000441000
0.230851144 0.098613620 0.000025875
0.303517431 0.102669872 0.000001312
0.375835031 0.106166251 0.000000000
0.446792841 0.108925752 0.000000000
0.515923858 0.111113995 0.000000000
0.583432615 0.112864748 0.000000000
0.649768472 0.114369377 0.000000000
0.715467572 0.115774125 0.000000000
0.780882061 0.116992250 0.000000000
0.845439672 0.117980555 0.000000000
0.904726684 0.118671872 0.000000000
0.945618272 0.118913129 0.000000000
0.982926130 0.119076878 0.000000000
0.000000000 0.118158318 0.044853061
0.013902063 0.132741272 0.034252938
0.061539814 0.144844458 0.009663627
0.152068511 0.150051147 0.001583125
0.236617684 0.154421762 0.000226750
0.311675549 0.159870952 0.000024375
0.384598136 0.164646074 0.000000938
0.456122100 0.168519258 0.000000000
0.526064932 0.171726391 0.000000000
0.594505370 0.174469829 0.000000000
0.661712110 0.176825196 0.000000000
0.728122711 0.178891823 0.000000000
0.793799818 0.180693194 0.000000000
0.857200563 0.182208210 0.000000000
0.913184822 0.183389261 0.000000000
0.951620698 0.184164196 0.000000000
0.988309145 0.184713572 0.000000000
0.000000000 0.165173754 0.051960249
0.014294437 0.180477679 0.035036877
0.064505622 0.195881635 0.014919250
0.148574084 0.208315820 0.004585374
0.240472496 0.216134742 0.000997750
0.319926858 0.222688064 0.000134688
0.393198252 0.228686124 0.000008250
0.464567304 0.233551383 0.000000000
0.534759283 0.237611756 0.000000000
0.603940368 0.241170496 0.000000000
0.672245085 0.244270623 0.000000000
0.739911854 0.246889129 0.000000000
0.806411743 0.249049991 0.000000000
0.868690968 0.250782400 0.000000000
0.920827687 0.252153009 0.000000000
0.957968950 0.253233463 0.000000000
0.993783772 0.253926009 0.000000000
0.000000000 0.216035247 0.052002501
0.016920624 0.231191754 0.032062564
0.076140307 0.247063935 0.019450251
0.155589640 0.263752997 0.010143998
0.244353682 0.279109687 0.003458500
0.327930808 0.289834976 0.000521875
0.402186453 0.297229707 0.000039063
0.472772062 0.303026676 0.000000000
0.542337894 0.307642430 0.000000000
0.611380756 0.311584294 0.000000000
0.680047870 0.315069199 0.000000000
0.748543203 0.318086982 0.000000000
0.815974236 0.320618749 0.000000000
0.877805173 0.322682261 0.000000000
0.926883399 0.324358135 0.000000000
0.963675499 0.325709492 0.000000000
0.998642325 0.326400429 0.000000000
0.000000002 0.270102143 0.046499997
0.027143132 0.284229666 0.030910315
0.092206880 0.299658030 0.023385752
0.168078572 0.317726463 0.016429376
0.251063645 0.338093400 0.008647252
0.334210515 0.356760323 0.002341251
0.410615504 0.368768156 0.000169375
0.480881929 0.375702441 0.000004000
0.549356639 0.380787402 0.000000000
0.617632985 0.384854198 0.000000000
0.686011970 0.388343394 0.000000000
0.754637241 0.391429842 0.000000000
0.822444499 0.394151747 0.000000000
0.883997798 0.396512181 0.000000000
0.930935264 0.398513913 0.000003125
0.967755437 0.400113285 0.000024688
1.002085209 0.400868893 0.000106250
0.003179817 0.326447964 0.040525496
0.046189323 0.339273751 0.033051565
0.109860502 0.354229271 0.028329628
0.180979505 0.372479260 0.022466877
0.258135021 0.394357711 0.014671565
0.338362813 0.418233842 0.006354315
0.415935278 0.438409775 0.001168938
0.487811565 0.449939519 0.000028000
0.555871904 0.455710709 0.000000000
0.623249352 0.459917396 0.000000000
0.691004574 0.463312477 0.000009750
0.759415746 0.466269791 0.000035250
0.827148676 0.468951732 0.000068750
0.888236046 0.471372366 0.000095438
0.933604360 0.473465919 0.000112063
0.970331311 0.475119174 0.000165438
1.004074454 0.475852817 0.000407375
0.012698002 0.384646535 0.039685000
0.065012001 0.396629006 0.037315316
0.125437245 0.411148012 0.033903003
0.192072630 0.428916633 0.028223250
0.264670014 0.450296998 0.020411501
0.341440439 0.475280643 0.011284625
0.418270528 0.500833273 0.003686125
0.491720915 0.520795405 0.000395562
0.561172009 0.530991018 0.000015000
0.628422976 0.535610676 0.000046500
0.695620894 0.539038181 0.000086625
0.763534784 0.541822791 0.000179000
0.830870748 0.544312000 0.000312750
0.891316831 0.546561062 0.000419375
0.935535550 0.548467040 0.000455250
0.971999526 0.549915671 0.000484938
1.005117416 0.550392032 0.000694500
0.024187561 0.444680810 0.043942686
0.077870063 0.456188619 0.042556062
0.136340126 0.470147759 0.039176188
0.200960144 0.487009138 0.033345312
0.271069378 0.506972075 0.025454437
0.344952077 0.530719042 0.016253186
0.419978589 0.557451010 0.007384374
0.493394703 0.583270073 0.001750124
0.564239204 0.602079213 0.000190062
0.632667899 0.610698104 0.000201063
0.699883282 0.614377737 0.000288813
0.767348230 0.617110372 0.000402000
0.833970010 0.619294226 0.000616000
0.893536389 0.621165276 0.000790938
0.936892509 0.622653604 0.000800312
0.973055005 0.623662472 0.000767562
1.005635500 0.623694003 0.000718250
0.032334626 0.506211042 0.049356375
0.086315125 0.517199814 0.047577374
0.144720867 0.530395031 0.043734625
0.208967894 0.546176970 0.037595369
0.277858764 0.564589500 0.029654000
0.349481046 0.586337328 0.020748248
0.422309756 0.611911416 0.011769998
0.494644135 0.639448762 0.004459374
0.565561295 0.664628148 0.000943750
0.635164440 0.681646764 0.000429250
0.703283012 0.688489318 0.000572500
0.770601749 0.691202760 0.000607188
0.836549163 0.693120956 0.000690875
0.895120144 0.694465935 0.000841375
0.937726438 0.695351124 0.000752875
0.973618090 0.695760012 0.000670500
1.005840302 0.695278168 0.000493625
0.038444623 0.568599463 0.053800751
0.093687445 0.578950644 0.051602937
0.152880132 0.591282964 0.047373999
0.217111513 0.606008768 0.041044746
0.285109490 0.623104751 0.033218998
0.354865760 0.643028557 0.024780437
0.425389230 0.666657925 0.016290747
0.496058077 0.693509996 0.008438997
0.566231370 0.720931768 0.002836124
0.635866463 0.744533360 0.000791437
0.705039561 0.758958757 0.000635313
0.772933960 0.763680875 0.000716875
0.838480532 0.765136600 0.000613188
0.896240532 0.765998065 0.000587125
0.938226819 0.766259074 0.000553125
0.973928750 0.766100883 0.000528562
1.005912185 0.765145600 0.000463937
0.044559501 0.631331027 0.057394501
0.101017691 0.641002893 0.054773942
0.161048383 0.652480125 0.050319377
0.225261897 0.666208327 0.044069875
0.292462498 0.682181716 0.036609247
0.360695750 0.700638950 0.028758563
0.429078281 0.722323477 0.020889625
0.497767746 0.747453570 0.013132747
0.566741228 0.774362504 0.006208500
0.635860503 0.799973249 0.001825689
0.705173373 0.820256174 0.000663750
0.774159849 0.830795944 0.000695063
0.839920998 0.833128750 0.000797250
0.897173226 0.833329022 0.000789750
0.938769698 0.833216190 0.000884125
0.974269152 0.832829118 0.001226063
1.005980730 0.831590295 0.001208250
0.050802883 0.693527222 0.061059754
0.108551569 0.702493310 0.058074377
0.169375956 0.713109732 0.053524319
0.233519599 0.725769818 0.047463816
0.299912959 0.740537882 0.040403314
0.366813183 0.757558465 0.033117570
0.433326811 0.777316928 0.025825193
0.499996245 0.800161421 0.018391564
0.567530215 0.824918866 0.010929504
0.635966420 0.848768651 0.004588131
0.705120742 0.868968606 0.001237503
0.774494529 0.883322597 0.001006189
0.841344357 0.889307559 0.001604438
0.898337245 0.889807463 0.002001939
0.939541817 0.889656663 0.002067689
0.974828362 0.889294326 0.002461563
1.006039500 0.888309956 0.002367000
0.058333255 0.753589928 0.066097632
0.117079198 0.761789382 0.062565133
0.178329766 0.771397293 0.057850383
0.242218912 0.782774091 0.051930882
0.307795644 0.796084940 0.045205381
0.373543382 0.811453164 0.038369004
0.438559651 0.829145968 0.031545378
0.503393292 0.849039733 0.024551503
0.569291115 0.869836807 0.017296754
0.636757493 0.889449954 0.010173883
0.705499709 0.905674517 0.004521632
0.774732590 0.917815387 0.002076566
0.841726899 0.926462173 0.002353251
0.899290919 0.930351198 0.002850750
0.940171063 0.930544972 0.003153627
0.975151777 0.930153608 0.003193314
1.006062746 0.929427147 0.002787627
0.067116760 0.809736371 0.072624132
0.126515031 0.817211747 0.068535440
0.187945515 0.825752974 0.063473441
0.251412868 0.835933387 0.057524879
0.316053808 0.847973704 0.050874002
0.380567551 0.861820638 0.044032626
0.444157094 0.877347171 0.037234060
0.507284641 0.893741548 0.030610939
0.571469426 0.908957481 0.024229255
0.637668729 0.922027230 0.017886570
0.705624282 0.933890283 0.011482882
0.774423420 0.945245206 0.006001256
0.841277480 0.955594003 0.003291690
0.898984075 0.963654041 0.002871562
0.940055192 0.966758192 0.002823690
0.975164771 0.966601312 0.004509263
1.006060004 0.965981603 0.004002076
0.075153001 0.864130974 0.078685999
0.135038614 0.870762825 0.074147560
0.196587622 0.878394008 0.068495251
0.259547353 0.887496471 0.062252313
0.323185742 0.898327768 0.055544499
0.386503488 0.910129368 0.048774499
0.448901027 0.920753717 0.042292625
0.510718882 0.930097997 0.036359746
0.573301077 0.939566493 0.030891998
0.637895226 0.949966013 0.025359936
0.704693973 0.960994363 0.019266000
0.772838116 0.971986532 0.012612250
0.839503527 0.982491970 0.006435500
0.897517383 0.992372870 0.002870374
0.939331293 1.000800610 0.002288128
0.974556327 1.003043771 0.004363950
1.006044984 1.003039956 0.017638000
0.000000000 0.005085625 0.016748438
0.017804062 0.013232499 0.033192188
0.082699753 0.010390250 0.033473939
0.144828886 0.010418938 0.034196064
0.210995510 0.011562251 0.034865063
0.281663120 0.012758500 0.035928626
0.353804410 0.013551874 0.037336249
0.424781412 0.013817062 0.039019126
0.493588716 0.013404562 0.040767752
0.560376287 0.012332938 0.042349748
0.625805616 0.011071375 0.043716002
0.690659463 0.010115500 0.044890311
0.755531073 0.009406375 0.045813438
0.820574105 0.008662624 0.046501875
0.883598447 0.007775499 0.047128249
0.934245408 0.006876311 0.047718376
0.972397268 0.005229250 0.048119999
0.000000000 0.040296249 0.034341563
0.017787188 0.049213756 0.039550312
0.081383497 0.049784873 0.038025189
0.152001441 0.050066311 0.038584124
0.221826822 0.052760500 0.039271876
0.293549985 0.055762440 0.040291939
0.365871280 0.058215939 0.041497812
0.436714262 0.059955001 0.042775501
0.505325258 0.060926627 0.044063248
0.571983874 0.061248001 0.045291308
0.637359560 0.061222561 0.046382815
0.702148855 0.061119560 0.047258437
0.766835213 0.060962558 0.047899187
0.831419528 0.060672309 0.048394684
0.892872810 0.060238440 0.048773438
0.939013183 0.059702188 0.049068499
0.976634741 0.059086747 0.049445625
0.000000000 0.076918751 0.051122248
0.015405438 0.088615246 0.053480253
0.076240063 0.093828872 0.043886311
0.157571495 0.097478688 0.043225251
0.232415482 0.101907626 0.043613441
0.305515349 0.106478252 0.044111751
0.377999067 0.110275507 0.044745687
0.448798448 0.113205940 0.045503374
0.517510355 0.115429625 0.046378374
0.584439039 0.117091253 0.047264874
0.650128782 0.118377000 0.048058685
0.715179443 0.119431622 0.048665062
0.780001938 0.120216310 0.049023312
0.844174445 0.120703995 0.049254123
0.903483510 0.120971933 0.049491063
0.944813311 0.120990254 0.049721312
0.982061863 0.120855562 0.049860373
0.000000000 0.118197381 0.065902062
0.014044188 0.133028761 0.064055681
0.063109756 0.145554826 0.052151628
0.155245826 0.151570320 0.047368746
0.239319250 0.157705456 0.047380749
0.315037549 0.163906008 0.047227249
0.388218254 0.169042021 0.047245938
0.459497780 0.173047066 0.047405250
0.528840125 0.176189199 0.047718000
0.596521974 0.178731322 0.048139624
0.662960231 0.180797830 0.048527747
0.728682935 0.182489708 0.048819687
0.793796062 0.183869958 0.049001187
0.856800735 0.184966326 0.049057122
0.912631691 0.185777143 0.048990250
0.951095521 0.186290890 0.048973564
0.987781823 0.186617643 0.049296062
0.000000000 0.164143443 0.076406501
0.014349937 0.180398554 0.070040874
0.065337248 0.196965754 0.060095754
0.150624648 0.210219383 0.052558251
0.243014097 0.218795940 0.050518371
0.322905988 0.226292744 0.049777128
0.396524757 0.232754052 0.049054753
0.467828274 0.237806320 0.048680440
0.537627220 0.241828948 0.048494630
0.606223941 0.245149627 0.048362937
0.673869610 0.247884482 0.048185997
0.740869284 0.250056744 0.047976315
0.806785822 0.251756638 0.047802061
0.868665218 0.253107578 0.047607750
0.920608222 0.254175991 0.047342878
0.957606196 0.255011439 0.047258001
0.993498206 0.255514681 0.047541939
0.000000000 0.214198187 0.081942312
0.017022124 0.230839998 0.072810501
0.077247374 0.248118266 0.066457249
0.157635599 0.265704244 0.059846684
0.246654525 0.281496286 0.054112434
0.330103010 0.292601198 0.051923122
0.404545277 0.300460368 0.050769564
0.475143284 0.306479752 0.049714748
0.544518650 0.311114252 0.049001500
0.613237977 0.314902246 0.048412248
0.681506395 0.318094254 0.047742125
0.749550462 0.320712179 0.046972875
0.816527486 0.322794795 0.046293501
0.877996087 0.324477494 0.045775000
0.926843584 0.325860381 0.045324750
0.963497758 0.326945424 0.045113128
0.998478293 0.327480495 0.045351125
0.000000002 0.267778069 0.082867190
0.027251882 0.283736497 0.075303122
0.093651623 0.300553024 0.071732566
0.170209751 0.319550216 0.067248940
0.253219068 0.340254664 0.060209937
0.335995674 0.358937860 0.054102503
0.412045211 0.371041566 0.051955000
0.482275248 0.378173262 0.050683312
0.550666690 0.383311480 0.049318500
0.618799090 0.387289017 0.048205249
0.686983347 0.390591443 0.047135126
0.755356908 0.393408895 0.046002813
0.822889566 0.395784080 0.044975873
0.884210706 0.397815138 0.044249251
0.930960298 0.399565041 0.043695875
0.967739403 0.400905907 0.043310627
1.002016068 0.401549220 0.043431252
0.003184317 0.323897779 0.081875816
0.046329573 0.338639587 0.079002008
0.111366622 0.354972303 0.077212811
0.183129758 0.374086946 0.073789880
0.260280579 0.396270037 0.067094684
0.339977294 0.420049697 0.058625817
0.416948527 0.440069467 0.052683566
0.488473237 0.451575458 0.050966125
0.556462944 0.457392663 0.049585249
0.623792470 0.461546153 0.047852751
0.691482723 0.464810610 0.046384502
0.759768665 0.467597485 0.045060061
0.827340305 0.470055282 0.043909311
0.888327718 0.472232044 0.043071561
0.933621407 0.474139988 0.042444311
0.970379174 0.475575477 0.042006437
1.004055500 0.476244122 0.041986253
0.012640002 0.381887078 0.083692685
0.065401003 0.395774037 0.084007621
0.126941755 0.411663890 0.082917571
0.194259629 0.430237174 0.079572625
0.266910523 0.451913059 0.073347248
0.343126804 0.476813793 0.064482123
0.419203669 0.502155185 0.055573251
0.492099226 0.521945715 0.050382439
0.561316252 0.532083690 0.049288999
0.628550112 0.536651373 0.047823813
0.695745707 0.539968729 0.045817751
0.763627350 0.542624533 0.044250939
0.830878139 0.544966638 0.043067563
0.891293883 0.547047913 0.042161312
0.935531497 0.548830688 0.041374750
0.972033679 0.550128698 0.040931504
1.005096078 0.550564885 0.040780999
0.023914311 0.441675037 0.089217380
0.078506246 0.455066711 0.089811444
0.137926996 0.470343173 0.088310629
0.203247011 0.487973183 0.084594056
0.273469657 0.508250475 0.078617379
0.346804380 0.531998873 0.070261374
0.420991659 0.558585703 0.060529929
0.493722409 0.584198117 0.052132495
0.564221084 0.602848589 0.047934562
0.632571399 0.611382544 0.047405250
0.699821055 0.614952266 0.045778252
0.767298818 0.617562830 0.043591313
0.833893836 0.619633853 0.042126812
0.893463314 0.621386290 0.041159563
0.936878324 0.622794628 0.040221438
0.973062515 0.623740911 0.039685376
1.005600929 0.623740375 0.039466437
0.031744376 0.503038883 0.095551684
0.086958438 0.515830278 0.095312253
0.146411821 0.530255914 0.093072996
0.211384878 0.546768665 0.088834003
0.280418485 0.565523088 0.082907751
0.351508498 0.587365031 0.075390063
0.423440337 0.612909138 0.066220805
0.494978607 0.640303195 0.056670994
0.565475643 0.665263653 0.048981745
0.634978771 0.682121873 0.045337811
0.703133941 0.688851655 0.044998188
0.770485580 0.691449702 0.043018188
0.836446941 0.693267047 0.040740062
0.895026445 0.694537759 0.039433941
0.937703729 0.695376873 0.038518250
0.973617554 0.695783556 0.037991311
1.005814910 0.695285618 0.037939060
0.037533376 0.565355659 0.100876063
0.094270878 0.577373147 0.099877000
0.154696062 0.590861976 0.097045809
0.219706193 0.606281400 0.092399500
0.287849367 0.623732209 0.086488187
0.357084632 0.643811107 0.079803064
0.426670760 0.667500436 0.071831681
0.496439844 0.694304585 0.062564678
0.566087663 0.721544802 0.053146247
0.635609746 0.744919598 0.045432247
0.704865038 0.759181798 0.041568067
0.772824883 0.763801217 0.041174378
0.838377416 0.765180647 0.039086562
0.896159232 0.765988886 0.037171751
0.938195109 0.766255796 0.036220752
0.973929405 0.766104937 0.036041498
1.005908728 0.765150309 0.036504250
0.043383751 0.628026366 0.105250686
0.101689510 0.639259696 0.103639379
0.163063318 0.651859641 0.100389063
0.228113443 0.666258037 0.095571250
0.295443684 0.682580650 0.089809254
0.363153636 0.701218784 0.083819441
0.430575639 0.723002434 0.077108875
0.498272955 0.748139560 0.068817802
0.566591561 0.774936318 0.059120059
0.635506272 0.800347030 0.049154378
0.704930604 0.820448101 0.040922441
0.774071276 0.830849767 0.036822561
0.839875817 0.833139718 0.036724124
0.897143066 0.833316922 0.035364565
0.938740909 0.833200574 0.034406621
0.974269986 0.832828403 0.034484625
1.005986094 0.831593990 0.035587810
0.049562946 0.690214515 0.109367631
0.109414823 0.700717628 0.107247949
0.171677560 0.712419689 0.103762448
0.236707151 0.725721121 0.098943695
0.303200006 0.740807295 0.093391001
0.369542390 0.758006394 0.087878004
0.435075790 0.777873814 0.082188010
0.500687718 0.800737560 0.075127564
0.567441940 0.825406194 0.066099443
0.635542631 0.849089861 0.055707194
0.704736352 0.869130969 0.045334697
0.774323940 0.883386135 0.037062753
0.841298938 0.889304399 0.033392124
0.898321331 0.889813483 0.033905059
0.939532161 0.889653027 0.033499189
0.974828362 0.889290631 0.033589125
1.006040931 0.888308525 0.034882311
0.057201445 0.750472546 0.114361510
0.118135579 0.760199904 0.111709699
0.180954397 0.770813525 0.107890815
0.245756581 0.782795548 0.103046633
0.311396807 0.796371937 0.097679883
0.376526564 0.811885595 0.092453450
0.440532088 0.829674482 0.087430067
0.504266798 0.849575698 0.081567131
0.569285452 0.870282710 0.073816381
0.636285722 0.889745057 0.064253822
0.704966307 0.905807853 0.053731572
0.774388969 0.917859137 0.043364760
0.841629744 0.926460147 0.034760565
0.899258614 0.930361986 0.030893246
0.940144241 0.930544317 0.031528246
0.975151718 0.930154145 0.032268815
1.006062627 0.929417491 0.033456936
0.066091076 0.806837261 0.120464258
0.127734885 0.815722764 0.117098503
0.190851063 0.825413287 0.112900257
0.255252451 0.836200058 0.107876137
0.319911599 0.848438501 0.102546319
0.383758515 0.862375379 0.097340569
0.446333021 0.877951205 0.092515141
0.508364022 0.894279838 0.087521069
0.571606874 0.909329712 0.081270441
0.637197793 0.922261417 0.073250756
0.704931557 0.934052706 0.063639067
0.773815036 0.945355475 0.052825511
0.840925574 0.955675721 0.041697696
0.898899853 0.963662863 0.032038376
0.940054059 0.966778994 0.028121062
0.975164711 0.966596901 0.030676942
1.006059170 0.965981603 0.032190129
0.074441440 0.861318529 0.126099125
0.136602372 0.869440079 0.122259125
0.199706241 0.878214836 0.117608689
0.263565958 0.887876689 0.112298556
0.327169746 0.898947239 0.106839247
0.389830440 0.910734653 0.101696439
0.451246977 0.921187520 0.097101063
0.511996508 0.930413902 0.092850119
0.573651552 0.939826310 0.088006243
0.637608290 0.950173736 0.081558496
0.704080284 0.961168349 0.073155567
0.772156835 0.972152829 0.062922880
0.838982880 0.982629240 0.051204748
0.897316575 0.992438912 0.039335929
0.939313471 1.000803709 0.029954435
0.974562407 1.003043771 0.028297756
1.006044149 1.003039956 0.036773313
0.000000000 0.010021125 0.037189372
0.015532563 0.017041875 0.061787248
0.071122624 0.015748374 0.068745129
0.139629021 0.012679126 0.067946874
0.203221262 0.014345624 0.069363624
0.272015512 0.015969064 0.071727872
0.343879521 0.016823126 0.074978873
0.415435374 0.017045062 0.078797437
0.485035151 0.016616751 0.082778245
0.552474856 0.015513750 0.086544871
0.618304372 0.014128500 0.089962125
0.683343232 0.012940688 0.093045376
0.748246014 0.011900625 0.095730253
0.813314736 0.010759249 0.097992815
0.877120972 0.009536624 0.099974371
0.930711508 0.008324748 0.101695314
0.969125450 0.006606750 0.102926746
0.000000000 0.045071624 0.056937627
0.016433563 0.054555248 0.070328496
0.075741500 0.053892620 0.074714750
0.147818625 0.052417561 0.074443936
0.216600075 0.055564128 0.076896310
0.288169771 0.059249561 0.079827309
0.360879272 0.062199064 0.083149195
0.432190478 0.064183570 0.086633809
0.501079142 0.065154813 0.090023994
0.567738175 0.065287627 0.093133435
0.632887959 0.064954691 0.095922813
0.697351635 0.064480312 0.098388940
0.761711895 0.063952439 0.100451745
0.826073647 0.063319132 0.102137625
0.888013661 0.062485695 0.103641063
0.936367393 0.061644752 0.104894936
0.974000812 0.060750373 0.105757371
0.000000000 0.080370627 0.073353872
0.015404562 0.092074126 0.081856132
0.075895250 0.095751248 0.082554251
0.155973703 0.098476067 0.083558366
0.230807871 0.104224868 0.086740874
0.304633856 0.109881878 0.089519501
0.377735913 0.114475250 0.092159510
0.448760033 0.117960311 0.094754681
0.517294943 0.120457120 0.097294003
0.583735168 0.122117937 0.099675626
0.648746848 0.123151995 0.101791628
0.713071406 0.123754561 0.103570126
0.777244747 0.124045372 0.104969375
0.841028631 0.124094248 0.106062189
0.900586784 0.123932749 0.106992498
0.942914963 0.123568937 0.107781000
0.980133653 0.123308882 0.108520627
0.000000000 0.118658632 0.088993505
0.013991313 0.133169577 0.094650686
0.062554188 0.145271763 0.093769625
0.155962870 0.152217135 0.092050374
0.239994198 0.160054937 0.095136002
0.316778839 0.167721212 0.097409181
0.390523732 0.173573330 0.099177316
0.461737990 0.177881688 0.100848936
0.530590653 0.181134015 0.102541000
0.597539902 0.183617324 0.104166567
0.663142323 0.185473889 0.105582938
0.728026509 0.186835572 0.106728941
0.792400420 0.187803015 0.107569933
0.855014205 0.188436449 0.108164683
0.911089301 0.188794076 0.108660623
0.949916184 0.188962907 0.109160118
0.986565888 0.189072818 0.109623119
0.000000000 0.162545249 0.102844745
0.014260812 0.179375738 0.105356254
0.064598873 0.196142852 0.104723118
0.151181445 0.210175753 0.100930750
0.244026363 0.220230252 0.100953117
0.324663997 0.229545757 0.102781877
0.399105251 0.237097889 0.103797376
0.470587254 0.242526948 0.104792625
0.540080607 0.246569991 0.105798252
0.608083248 0.249700189 0.106748879
0.674960256 0.252085745 0.107536249
0.741123974 0.253831208 0.108093187
0.806277454 0.255102873 0.108452000
0.867714763 0.256052881 0.108666375
0.919777393 0.256746233 0.108781628
0.956838787 0.257270515 0.108966246
