luts/1779018405915-CLassicFilm01.cube
TITLE "17x17x17 Adobe/IRIDAS cube 3D LUT exported with GrossGrade v0.2.2 (beta) 64 bit"
DOMAIN_MIN 0 0 0
DOMAIN_MAX 1 1 1
LUT_3D_SIZE 5
0.000000000 0.000000000 0.000000000
0.241069257 0.027964750 0.000000000
0.472880512 0.046527497 0.000298000
0.674280524 0.050346751 0.000528250
0.886303008 0.037058000 0.000000000
0.000733500 0.181695014 0.004913000
0.257318258 0.240369260 0.000028750
0.510566950 0.272430003 0.000266500
0.735869288 0.277227014 0.000274000
0.952251256 0.269004762 0.000000000
0.082649507 0.428734004 0.029353501
0.324303746 0.474968970 0.001790250
0.546042025 0.504419565 0.000339500
0.763381004 0.508889318 0.000343250
0.992244482 0.505563498 0.000000000
0.215861261 0.664952278 0.047531754
0.415298492 0.690415978 0.008183001
0.619922757 0.714769006 0.000560500
0.805704713 0.721329212 0.000794500
1.003377199 0.746668279 0.000015750
0.299910992 0.864862978 0.049511001
0.495187968 0.877484262 0.014254499
0.686550975 0.894830465 0.000202500
0.862451792 0.903427482 0.000794750
1.001242995 0.912465990 0.001280000
0.000000000 0.022226002 0.134910002
0.202276498 0.012006500 0.170287013
0.439904988 0.006126250 0.173714757
0.645998478 0.006437750 0.178225502
0.856895983 0.002859750 0.180239752
0.000989000 0.212018996 0.193328261
0.252538264 0.247253001 0.212325260
0.503703535 0.270724505 0.213064507
0.735536337 0.272297025 0.204452008
0.952439964 0.247616753 0.191595495
0.045675755 0.422125757 0.234024987
0.314861000 0.480740279 0.252038747
0.538436949 0.514140546 0.236917004
0.768452048 0.516612232 0.224444762
0.998723745 0.510985792 0.212468266
0.131371006 0.640428245 0.256695747
0.361313760 0.694552779 0.274772763
0.592211485 0.728609264 0.260765016
0.801891506 0.743024468 0.224158004
1.004081011 0.752350986 0.224886745
0.177724987 0.848607242 0.258948743
0.419083267 0.891092777 0.279342502
0.650838733 0.910152256 0.269350767
0.851051211 0.924658239 0.241180748
1.001344919 0.933910251 0.184504747
0.000000000 0.052765004 0.286296010
0.165886000 0.022115752 0.338155270
0.415772498 0.001145000 0.366468519
0.600398719 0.000038500 0.365418494
0.806804478 0.000000500 0.383893490
0.000000000 0.254054755 0.380797505
0.213703007 0.272747010 0.400257051
0.471372515 0.272729009 0.428590238
0.688964725 0.277039528 0.426398516
0.912781239 0.245487243 0.422973752
0.012433004 0.463499010 0.436995983
0.280418038 0.496934772 0.459639251
0.512152553 0.528582573 0.473904490
0.762459040 0.530393243 0.467780530
0.990872502 0.516364515 0.454740047
0.080640748 0.652761042 0.458057284
0.297883987 0.698241949 0.472038507
0.542276561 0.743021488 0.484806269
0.786648512 0.761524558 0.476294786
1.003749728 0.759373784 0.466697276
0.066146001 0.838100493 0.454717517
0.293843478 0.886144280 0.463673025
0.587689996 0.923547506 0.473601997
0.827485561 0.941156745 0.471881777
0.998539507 0.951590002 0.443038017
0.000000000 0.087301254 0.442117751
0.128123760 0.041846752 0.488125026
0.383919269 0.002291750 0.516117036
0.585794806 0.000000000 0.542836785
0.732504725 0.000000000 0.533455789
0.000000000 0.295417994 0.537628531
0.169139490 0.309281498 0.553170025
0.411015004 0.289938003 0.590019226
0.647371054 0.277515024 0.607164741
0.841512978 0.266113997 0.593420506
0.000017250 0.498118043 0.629309475
0.238286987 0.522145987 0.640636981
0.458075523 0.548808515 0.640741587
0.709553540 0.544174731 0.648306251
0.947188020 0.528806031 0.634402275
0.030814750 0.698745549 0.642211258
0.252531290 0.726456761 0.651717544
0.491616786 0.759373546 0.663702011
0.762546003 0.781934321 0.668433309
0.998703480 0.772832274 0.673233271
0.023047749 0.860163033 0.632880509
0.198971510 0.892640233 0.638010025
0.480411768 0.928890467 0.647616744
0.783765256 0.957824469 0.655197263
0.997203708 0.968817234 0.647525489
0.000000000 0.127037004 0.599121988
0.114141002 0.076463252 0.613798499
0.334393501 0.017305497 0.668719530
0.537394762 0.000000000 0.673760772
0.718690991 0.000000000 0.697175980
0.000000000 0.332376003 0.678339720
0.117113501 0.344475001 0.693234503
0.325392991 0.318482280 0.712644517
0.556748748 0.284968019 0.742817998
0.788605988 0.252166510 0.760524988
0.000000000 0.519765973 0.765046477
0.152768508 0.549542010 0.775556028
0.379613012 0.576179028 0.778473496
0.607271552 0.561016023 0.784532011
0.864667535 0.530948997 0.805657029
0.000219251 0.732155561 0.851403534
0.202106252 0.747394800 0.858071506
0.446430027 0.767896533 0.861418009
0.708524287 0.794757843 0.840729058
0.947970748 0.789344013 0.840410233
0.009513000 0.910513997 0.823554993
0.183402762 0.929447532 0.837228775
0.436078012 0.950003028 0.848029017
0.736157775 0.970703006 0.850375533
0.994129002 0.982024014 0.850372016
