luts/1779018405915-CLassicFilm01.cube
TITLE "17x17x17 Adobe/IRIDAS cube 3D LUT exported with GrossGrade v0.2.2 (beta) 64 bit"
DOMAIN_MIN 0 0 0
DOMAIN_MAX 1 1 1
LUT_3D_SIZE 17
0.000000000 0.000000000 0.000000000
0.046204686 0.005728125 0.000000000
0.103984758 0.012921000 0.000000000
0.171564892 0.020806752 0.000000000
0.241069257 0.027964750 0.000000000
0.306614131 0.033923376 0.000000000
0.366374761 0.038844004 0.000000000
0.421202958 0.043000124 0.000082688
0.472880512 0.046527497 0.000298000
0.523046076 0.049301498 0.000494500
0.572884858 0.051010374 0.000547750
0.623180509 0.051380377 0.000536187
0.674280524 0.050346751 0.000528250
0.726209998 0.048098810 0.000511000
0.779201806 0.044971623 0.000401625
0.832730591 0.041107997 0.000000000
0.886303008 0.037058000 0.000000000
0.000000000 0.038803127 0.000020625
0.046372499 0.047932498 0.000017812
0.105475552 0.057650622 0.000001187
0.174244627 0.067706563 0.000000000
0.245384395 0.077586435 0.000000000
0.312999636 0.086415686 0.000000000
0.374859780 0.093688689 0.000000000
0.431599647 0.099273190 0.000080438
0.485007316 0.103297442 0.000291750
0.536769331 0.105980001 0.000487375
0.588092268 0.107483126 0.000542875
0.639730871 0.107878186 0.000498687
0.691951811 0.107162692 0.000338000
0.744679332 0.105293438 0.000090812
0.797939956 0.102263242 0.000053062
0.851093411 0.098187432 0.000000000
0.904154897 0.093805812 0.000000000
0.000000000 0.081158742 0.000393875
0.046461750 0.092634879 0.000286062
0.105859503 0.105115503 0.000038250
0.176192895 0.118005440 0.000002563
0.248579875 0.129703492 0.000000000
0.317747742 0.140072748 0.000000000
0.381496400 0.148609877 0.000000000
0.440246344 0.154984504 0.000078188
0.495629013 0.159319878 0.000283500
0.549230814 0.162033752 0.000474562
0.602178872 0.163561136 0.000529750
0.655173719 0.164160684 0.000487438
0.708419859 0.163858995 0.000317750
0.761793971 0.162505940 0.000037625
0.815352321 0.159902498 0.000003750
0.868420959 0.156057060 0.000000000
0.921219230 0.151754126 0.000000000
0.000000000 0.128790200 0.001628376
0.047779500 0.142312452 0.000850063
0.107870996 0.156188399 0.000382688
0.178565830 0.170616269 0.000054812
0.251651436 0.184326082 0.000003625
0.321332067 0.195605263 0.000000000
0.386290073 0.204599023 0.000000000
0.446781546 0.211142778 0.000075375
0.504156053 0.215440527 0.000275438
0.559753001 0.218060642 0.000462750
0.614489377 0.219598502 0.000510938
0.668928027 0.220401376 0.000453813
0.723233223 0.220486194 0.000284625
0.777295351 0.219640374 0.000030375
0.831225336 0.217581689 0.000000000
0.884445071 0.214248762 0.000000000
0.937247515 0.210316330 0.000000000
0.000733500 0.181695014 0.004913000
0.052350000 0.196737766 0.002648188
0.114221998 0.211626619 0.001087500
0.184779584 0.226215631 0.000358000
0.257318258 0.240369260 0.000028750
0.325764686 0.252611011 0.000001188
0.390143633 0.261730522 0.000000000
0.451527357 0.268226743 0.000073125
0.510566950 0.272430003 0.000266500
0.568018317 0.274883389 0.000448250
0.624486268 0.276243389 0.000499125
0.680395246 0.276990294 0.000444812
0.735869288 0.277227014 0.000274000
0.790817618 0.276729077 0.000029250
0.845391214 0.275159270 0.000000000
0.899107099 0.272422254 0.000000000
0.952251256 0.269004762 0.000000000
0.005702500 0.239503503 0.010504687
0.063298814 0.255109191 0.005887625
0.127492502 0.270248950 0.002545937
0.196868196 0.284655929 0.000841937
0.267474771 0.298238873 0.000199750
0.334547490 0.310522974 0.000005937
0.396085322 0.319877386 0.000000000
0.455825478 0.326024443 0.000070313
0.515327632 0.330021948 0.000257063
0.574169993 0.332440436 0.000433562
0.632109284 0.333757073 0.000486312
0.689298630 0.334398627 0.000444437
0.745899498 0.334552437 0.000280375
0.801904202 0.334101439 0.000030250
0.857467651 0.332791239 0.000000000
0.912077785 0.330563635 0.000000000
0.965969563 0.327640504 0.000000000
0.019707510 0.301114142 0.017331254
0.083219074 0.316276312 0.010185938
0.148936003 0.330802649 0.004722376
0.215823337 0.344567031 0.001699250
0.282384634 0.357403249 0.000533125
0.347086221 0.369047999 0.000126563
0.407469988 0.378581136 0.000000000
0.463440657 0.384679377 0.000047250
0.520198405 0.388136774 0.000226375
0.578842521 0.390320748 0.000412437
0.637732863 0.391668528 0.000472250
0.695981145 0.392372400 0.000437875
0.753498614 0.392534524 0.000284375
0.810405135 0.392106295 0.000030875
0.866962075 0.390934408 0.000000000
0.922660053 0.389005631 0.000000000
0.977504909 0.386469901 0.000000000
0.045923956 0.364806771 0.023893565
0.112286203 0.378720969 0.014753127
0.177242771 0.391980112 0.007356189
0.240325645 0.404659480 0.002909188
0.301878691 0.416626096 0.001043375
0.362350106 0.427474409 0.000424188
0.421557248 0.436658144 0.000163313
0.477294832 0.443299770 0.000090000
0.529610217 0.446772873 0.000196250
0.584264874 0.448491216 0.000384313
0.642145097 0.449651599 0.000463250
0.700893521 0.450414240 0.000438125
0.759184361 0.450712860 0.000299250
0.816816688 0.450470150 0.000046437
0.874123037 0.449561924 0.000000437
0.930683613 0.447933078 0.000000000
0.986123323 0.445774466 0.000000000
0.082649507 0.428734004 0.029353501
0.147516131 0.440954953 0.019211564
0.209111512 0.452631652 0.010458626
0.267587870 0.463992417 0.004622376
0.324303746 0.474968970 0.001790250
0.380586684 0.485053301 0.000788313
0.437068641 0.493619919 0.000491250
0.493178338 0.500187397 0.000374063
0.546042025 0.504419565 0.000339500
0.595480382 0.506473422 0.000419500
0.648069263 0.507578254 0.000486625
0.704990029 0.508396566 0.000455875
0.763381004 0.508889318 0.000343250
0.821642280 0.508933425 0.000102187
0.879617453 0.508426249 0.000002750
0.936741352 0.507272363 0.000000000
0.992244482 0.505563498 0.000000000
0.123334438 0.491325557 0.033942815
0.183725417 0.501803041 0.023754938
0.240677685 0.511875391 0.014225937
0.294796944 0.521884620 0.007068499
0.347739339 0.531805515 0.002970625
0.400956541 0.541130304 0.001258813
0.455091000 0.549183905 0.000751437
0.509844542 0.555391073 0.000669938
0.563968182 0.559586465 0.000663813
0.614232242 0.562233508 0.000613938
0.660725176 0.564219117 0.000591062
0.711270034 0.565815210 0.000511437
0.767153263 0.566928864 0.000392562
0.825214505 0.567483127 0.000190625
0.883794129 0.567446649 0.000013062
0.941408932 0.566840112 0.000000000
0.996697903 0.565609396 0.000000000
0.160708621 0.551660657 0.038392376
0.216293007 0.560577035 0.028641626
0.269222856 0.569171488 0.018639252
0.320263743 0.577881336 0.010171438
0.370925128 0.586725831 0.004579999
0.422411501 0.595262468 0.001855687
0.475117892 0.602874100 0.000925625
0.528573394 0.608935058 0.000741875
0.581854463 0.613004744 0.000784500
0.633604944 0.615319431 0.000831250
0.680864155 0.617275238 0.000767875
0.724527538 0.620465517 0.000643812
0.773432255 0.623588264 0.000467625
0.828577518 0.625650704 0.000285875
0.886850536 0.626575232 0.000052875
0.944875121 0.626607001 0.000000000
0.999906659 0.625822008 0.000000000
0.191228315 0.609533131 0.043059565
0.243587688 0.617094994 0.033748001
0.294192255 0.624355376 0.023322001
0.343753189 0.631827116 0.013547249
0.393449605 0.639593184 0.006400062
0.444161177 0.647323787 0.002509750
0.496075541 0.654497206 0.001021625
0.548606336 0.660541654 0.000677000
0.600768209 0.664844632 0.000688125
0.651707768 0.667117417 0.000790625
0.700509429 0.668095231 0.000881312
0.744817257 0.670166135 0.000816000
0.786310077 0.675681829 0.000614187
0.834374785 0.681239426 0.000409687
0.889692187 0.684862733 0.000160812
0.947316825 0.686470091 0.000012562
1.002066970 0.686329544 0.000000312
0.215861261 0.664952278 0.047531754
0.266869992 0.671322286 0.038580690
0.316679120 0.677379370 0.027754378
0.365868330 0.683692992 0.016764749
0.415298492 0.690415978 0.008183001
0.465606570 0.697356701 0.003171687
0.516896725 0.704090118 0.001077500
0.568666220 0.710103452 0.000530250
0.619922757 0.714769006 0.000560500
0.669759393 0.717499197 0.000683875
0.717801094 0.718313992 0.000834500
0.763754010 0.718466580 0.000935437
0.805704713 0.721329212 0.000794500
0.845917523 0.730237722 0.000559187
0.894362211 0.738914907 0.000352250
0.949312449 0.744710028 0.000100500
1.003377199 0.746668279 0.000015750
0.237586886 0.717860699 0.050885752
0.288343519 0.723180413 0.042492505
0.338123649 0.728186607 0.031472377
0.387297720 0.733469188 0.019532250
0.436508983 0.739239514 0.009747938
0.486326218 0.745431304 0.003782188
0.536894023 0.751710117 0.001130375
0.587873042 0.757607043 0.000323937
0.638411582 0.762527347 0.000297437
0.687507033 0.765815735 0.000535562
0.734612882 0.767126918 0.000737875
0.779862702 0.766877770 0.000925187
0.823347747 0.766685724 0.001003000
0.863327801 0.770888686 0.000762250
0.903112233 0.784258604 0.000520688
0.951824605 0.796396196 0.000343750
1.003793716 0.803965271 0.000118500
0.258892417 0.768694520 0.052453000
0.309672654 0.773108780 0.044919875
0.359538913 0.777261257 0.034140252
0.408567458 0.781671882 0.021768250
0.457263052 0.786601663 0.011140375
0.506310761 0.792069018 0.004408751
0.556020319 0.797817826 0.001306750
0.606162846 0.803425252 0.000281687
0.656005144 0.808369577 0.000114500
0.704564929 0.812051237 0.000297375
0.751105368 0.814009547 0.000588250
0.795466423 0.814250648 0.000808437
0.837953150 0.813426852 0.000975875
0.878769636 0.813333631 0.001057875
0.916615665 0.819308281 0.000766875
0.956053436 0.837635517 0.000539813
1.003036380 0.851985037 0.000409875
0.280161679 0.817568064 0.051868808
0.331040084 0.821294367 0.045394499
0.380785614 0.824756861 0.035635624
0.429338962 0.828384459 0.023600625
0.477206022 0.832543612 0.012611064
0.525280178 0.837312877 0.005199376
0.574060678 0.842486858 0.001573813
0.623338103 0.847652256 0.000324875
0.672418118 0.852332175 0.000091500
0.720388830 0.856054604 0.000208813
0.766443610 0.858449578 0.000443625
0.810136735 0.859409034 0.000707187
0.851381779 0.859172523 0.000924687
0.890435994 0.858370543 0.001004500
0.927895248 0.858716130 0.001092375
0.962695003 0.866935372 0.000850625
1.002001405 0.888019741 0.000712813
0.299910992 0.864862978 0.049511001
0.350833178 0.868126452 0.044494439
0.400408745 0.870972514 0.036195748
0.448297232 0.873984575 0.025069123
0.495187968 0.877484262 0.014254499
0.542230785 0.881559670 0.006404062
0.590052366 0.886027098 0.002191250
0.638389349 0.890565753 0.000550062
0.686550975 0.894830465 0.000202500
0.733749747 0.898462176 0.000355437
0.779221117 0.901169837 0.000561125
0.822292686 0.902826428 0.000668312
0.862451792 0.903427482 0.000794750
0.899654627 0.903119981 0.000953938
0.934583724 0.902529478 0.001047750
0.967642128 0.903285086 0.001310000
1.001242995 0.912465990 0.001280000
0.000000000 0.000696563 0.028682813
0.043152191 0.006408750 0.031987499
0.097731493 0.011450876 0.033169623
0.162534207 0.016706502 0.034360684
0.230510935 0.021493750 0.035167687
0.295768499 0.025386062 0.035753127
0.356016010 0.028423063 0.036263123
0.411655843 0.030897750 0.036752813
0.464169770 0.033068873 0.037270624
0.515000343 0.034938127 0.037818000
0.565223992 0.036296126 0.038351122
0.615617037 0.036903501 0.038876813
0.666637599 0.036580250 0.039424248
0.718487263 0.035220936 0.040013686
0.771452308 0.032761496 0.040654309
0.825036228 0.029162997 0.041256372
0.878539562 0.025253002 0.041726250
0.000000000 0.043463435 0.033299062
0.044939063 0.050460935 0.034921877
0.101333119 0.058227811 0.037061248
0.167688131 0.066365004 0.038114309
0.237358242 0.074224375 0.038428314
0.304504484 0.081217185 0.038450189
0.366635382 0.087018058 0.038477186
0.424033493 0.091583811 0.038612813
0.478240997 0.094995938 0.038836248
0.530802310 0.097317122 0.039097063
0.582810760 0.098564506 0.039345063
0.634930849 0.098726936 0.039630249
0.687404811 0.097738937 0.040036064
0.740240097 0.095478565 0.040534187
0.793646634 0.091837108 0.041101187
0.846949220 0.086935125 0.041560501
0.900017679 0.081838630 0.042022500
0.000021000 0.086472683 0.036792561
0.046953313 0.096508190 0.038774122
0.105037689 0.107487313 0.040276311
0.173126012 0.118491799 0.041741747
0.243835881 0.128440425 0.042050812
0.312197566 0.137351424 0.041781250
0.375871241 0.144871742 0.041406687
0.435055226 0.150717065 0.041143376
0.491188794 0.154872254 0.041013379
0.545685768 0.157504380 0.040956311
0.599503696 0.158828378 0.040926315
0.653212965 0.158992365 0.040957808
0.706968129 0.157991260 0.041101813
0.760654330 0.155666366 0.041354500
0.814359665 0.151818618 0.041733626
0.867483556 0.146554127 0.042160496
0.920207560 0.141004950 0.042573750
0.000269500 0.133694187 0.042337630
0.050477196 0.146306187 0.043681812
0.110573187 0.159394816 0.044181187
0.179333881 0.172597453 0.044343129
0.250342876 0.184731379 0.045016687
0.318701893 0.194755316 0.044873063
0.383145392 0.202952206 0.044392813
0.443764895 0.209212333 0.043932129
0.501732171 0.213604331 0.043579187
0.558207512 0.216394201 0.043287311
0.613897562 0.217901081 0.042992875
0.669186711 0.218345448 0.042731937
0.724143267 0.217737392 0.042587124
0.778625906 0.215885833 0.042603500
0.832747102 0.212515146 0.042810123
0.885955095 0.207632214 0.043123499
0.938655257 0.202325642 0.043466248
0.001518000 0.185234249 0.049465626
0.057060938 0.200046003 0.049841560
0.119928308 0.214847505 0.049227875
0.189071640 0.228961438 0.047883190
0.259175450 0.242139816 0.046762563
0.325680792 0.253229082 0.046925560
0.389044821 0.261629909 0.046696812
0.450176954 0.267863572 0.046211813
0.509530425 0.272152573 0.045772877
0.567700505 0.274830192 0.045419123
0.625081956 0.276314467 0.045074061
0.681872845 0.276931584 0.044715438
0.738063991 0.276736081 0.044409376
0.793519080 0.275504500 0.044249997
0.848362744 0.272896439 0.044296876
0.902054548 0.268846631 0.044481874
0.955120385 0.264199317 0.044725496
0.006245312 0.240770742 0.057685561
0.068557933 0.257198036 0.056760058
0.134518117 0.273028940 0.054798376
0.203210071 0.287630796 0.052289624
0.271712065 0.300856948 0.049494624
0.336496472 0.312364787 0.047657561
0.396504223 0.320926428 0.047743246
0.455623657 0.326705813 0.047802623
0.515141308 0.330688179 0.047514874
0.574450672 0.333256990 0.047118001
0.633150876 0.334713757 0.046714626
0.691172183 0.335363686 0.046362061
0.748489261 0.335335910 0.046106752
0.805019677 0.334491998 0.045997433
0.860893011 0.332545817 0.046050187
0.915509760 0.329406500 0.046184000
0.969325125 0.325537503 0.046381123
0.018066570 0.299770385 0.066124380
0.086647816 0.316968203 0.063851252
0.154886752 0.332933635 0.060541436
0.222035587 0.347406656 0.056941185
0.287377745 0.360333264 0.053183816
0.350325257 0.371683210 0.049605187
0.409075648 0.380658329 0.047536872
0.464034915 0.386184096 0.047941685
0.520514429 0.389391780 0.048547566
0.579355121 0.391587615 0.048520189
0.638750792 0.393036962 0.048118062
0.697665215 0.393812686 0.047689129
0.755835712 0.393955946 0.047440000
0.813284397 0.393373221 0.047418933
0.870237708 0.391866207 0.047592688
0.926033497 0.389405102 0.047845125
0.980782688 0.386220515 0.048158124
0.039578576 0.361245036 0.073798373
0.111641765 0.378199905 0.070555940
0.180053771 0.393438041 0.066192247
0.244498834 0.407148212 0.061693996
0.305963367 0.419485092 0.057225317
0.365640700 0.430403769 0.052847251
0.423829436 0.439478338 0.048925124
0.478595495 0.445768982 0.046884563
0.530289769 0.448723584 0.047801558
0.584848523 0.450126350 0.049040001
0.642962813 0.451232970 0.049276065
0.702139258 0.452065259 0.048957687
0.760940969 0.452440798 0.048657566
0.819083571 0.452192336 0.048609499
0.876871705 0.451121211 0.048814625
0.933634162 0.449221492 0.049160875
0.988933384 0.446644098 0.049592249
0.070243008 0.423788756 0.080246687
0.141751453 0.439578533 0.076744750
0.207773209 0.453481078 0.071777061
0.268638194 0.466003776 0.066603310
0.326319695 0.477515161 0.061524689
0.382792383 0.487945706 0.056630000
0.439067960 0.496793121 0.051947437
0.494748384 0.503482938 0.047849000
0.547067225 0.507477283 0.045910690
0.596109688 0.508916974 0.047413003
0.648664296 0.509538174 0.049296938
0.705798447 0.510210216 0.049912374
0.764542639 0.510747433 0.049881190
0.823217213 0.510857761 0.049827501
0.881667256 0.510299087 0.049964316
0.939058721 0.509013534 0.050281502
0.994357586 0.507041752 0.050722502
0.105737880 0.485767365 0.085734189
0.173343807 0.499874026 0.082636498
0.235270426 0.512192547 0.077540688
0.292438000 0.523377895 0.071832500
0.347085863 0.533931732 0.066136315
0.401242554 0.543809175 0.060706690
0.455887944 0.552449882 0.055523623
0.510841310 0.559168696 0.050607119
0.564895332 0.563618541 0.046402566
0.614882529 0.566021502 0.044662628
0.661154747 0.567208230 0.046804503
0.711722970 0.568104208 0.049402189
0.767840683 0.568931699 0.050622687
0.826228738 0.569450617 0.051027250
0.885195732 0.569415748 0.051195558
0.943077743 0.568742335 0.051439125
0.998113215 0.567347109 0.051805750
0.140205294 0.545902312 0.090830132
0.202668875 0.558285356 0.088482067
0.260411233 0.569068670 0.083557434
0.314643443 0.578960598 0.077397943
0.367371440 0.588496983 0.071001500
0.420268863 0.597717702 0.064915434
0.474020630 0.606113076 0.059195500
0.528243184 0.612928391 0.053739686
0.582001925 0.617589176 0.048657563
0.633932292 0.620177507 0.044529814
0.681158543 0.621820986 0.043198563
0.724790692 0.623993218 0.046082251
0.773799598 0.626162171 0.049543127
0.829195380 0.627730787 0.051545188
0.887770414 0.628500223 0.052343503
0.946007550 0.628458858 0.052679185
1.000779271 0.627562940 0.052961249
0.169752374 0.603708386 0.095833316
0.227862373 0.614606857 0.094252065
0.282593876 0.624047816 0.089549437
0.335122079 0.632757485 0.082996622
0.386992663 0.641259313 0.075868309
0.439412117 0.649700165 0.069052309
0.492775887 0.657721877 0.062738188
0.546547711 0.664605796 0.056792561
0.599712610 0.669633150 0.051208060
0.651352584 0.672475398 0.046215311
0.700517535 0.673725605 0.042467996
0.745007217 0.675425887 0.041708499
0.786583662 0.679677010 0.045437939
0.834750473 0.684009492 0.049836189
0.890257597 0.686895490 0.052566316
0.948032022 0.688171983 0.053743374
1.002558827 0.687878251 0.054184373
0.193965822 0.659173965 0.100526623
0.249374568 0.668873787 0.099552378
0.302566320 0.677186728 0.095022559
0.354473412 0.684824884 0.088139497
0.406164140 0.692316175 0.080360375
0.458439767 0.699891806 0.072875001
0.511511564 0.707376480 0.066010691
0.564876676 0.714176238 0.059637308
0.617538154 0.719557285 0.053724188
0.668546438 0.722933948 0.048388939
0.717416227 0.724314213 0.043853939
0.763789296 0.724777877 0.040662315
0.805985689 0.727216065 0.040370375
0.846246183 0.734576881 0.044922501
0.894682586 0.741788864 0.050088126
0.949698329 0.746549606 0.053553123
1.003592014 0.748018384 0.055127438
0.214709640 0.712381363 0.104302630
0.268849343 0.721117377 0.103813626
0.321581066 0.728472531 0.099492118
0.373470902 0.735142052 0.092409804
0.425188839 0.741677523 0.084151126
0.477274776 0.748365462 0.076136306
0.529879034 0.755168319 0.068821937
0.582643807 0.761653185 0.062114187
0.634754896 0.767175436 0.055975623
0.685274839 0.771092057 0.050554194
0.733575642 0.773059487 0.045887314
0.779638708 0.773417473 0.042012937
0.823461592 0.773552179 0.039241623
0.863568008 0.777229786 0.039106000
0.903371930 0.788757861 0.044385690
0.952026308 0.799243808 0.050138686
1.003856182 0.805588365 0.054333560
0.234303653 0.763836324 0.106627375
0.288009346 0.771795988 0.106570877
0.340825737 0.778317213 0.102609128
0.392873764 0.784120262 0.095575944
0.444502115 0.789755046 0.087087192
0.496138930 0.795562744 0.078704007
0.548007488 0.801567793 0.071028627
0.599920392 0.807482898 0.064080939
0.651275277 0.812813818 0.057822753
0.701236963 0.817006171 0.052380249
0.749097586 0.819621682 0.047815129
0.794529617 0.820580602 0.043909565
0.837703586 0.820360839 0.040507499
0.878758788 0.820472062 0.037822623
0.916666150 0.825796008 0.037694000
0.956191897 0.842076182 0.043707374
1.003132701 0.854704320 0.049602557
0.253634870 0.813553035 0.107190311
0.307430625 0.820809066 0.107613310
0.360532403 0.826591969 0.104187131
0.412673742 0.831597328 0.097577304
0.463988483 0.836366951 0.089172818
0.514906406 0.841317415 0.080585688
0.565793037 0.846473038 0.072609998
0.616603494 0.851651013 0.065516442
0.666941106 0.856517017 0.059325870
0.716116190 0.860656440 0.054023061
0.763398170 0.863681316 0.049558751
0.808254361 0.865366280 0.045724001
0.850391924 0.865773499 0.042169373
0.889968514 0.865346968 0.038778685
0.927633345 0.865650237 0.036055375
0.962689400 0.872989297 0.036346067
1.002066731 0.892076850 0.042447869
0.271845043 0.861652970 0.106218502
0.326128185 0.868419826 0.107234754
0.379523993 0.873561919 0.104567558
0.431621104 0.877829134 0.098555684
0.482350618 0.881781757 0.090473808
0.532304108 0.885887146 0.081903622
0.582053900 0.890209675 0.073805936
0.631608903 0.894607902 0.066672884
0.680669248 0.898867905 0.060605437
0.728767037 0.902718306 0.055516686
0.775287509 0.905893743 0.051183123
0.819508612 0.908204257 0.047326125
0.860730052 0.909512401 0.043743685
0.898760378 0.909751475 0.040240247
0.934271097 0.909217119 0.036710806
0.967609406 0.909572601 0.034105189
1.001408935 0.917804122 0.034738436
0.000000000 0.006822500 0.061737128
0.040376689 0.008922687 0.066223934
0.092014618 0.010791000 0.071446627
0.153703511 0.013912939 0.073219374
0.220387757 0.016540125 0.074787252
0.285653114 0.018461563 0.075987816
0.346566767 0.019598749 0.076890245
0.403074265 0.020295002 0.077685505
0.456391633 0.020960126 0.078418374
0.507813811 0.021756437 0.079043567
0.558363616 0.022620125 0.079608008
0.608831942 0.023370311 0.080226064
0.659746766 0.023729123 0.080994755
0.711447835 0.023324247 0.081952557
0.764319062 0.021689497 0.082889751
0.817849159 0.018689247 0.083649933
0.871348381 0.015106125 0.084244370
0.000000000 0.049698748 0.069734380
0.043177690 0.054380998 0.072693303
0.096820250 0.059540182 0.077233501
0.160395384 0.065278001 0.079151817
0.228906676 0.070933625 0.080325752
0.295926154 0.076043814 0.080829188
0.358505279 0.080283754 0.081083059
0.416572869 0.083633624 0.081335060
0.471473873 0.086182557 0.081580371
0.524633884 0.087958314 0.081762001
0.577059150 0.088914506 0.081900060
0.629392862 0.088979751 0.082124501
0.681945384 0.088005796 0.082558185
0.734832525 0.085736558 0.083139256
0.788309753 0.081931747 0.083757997
0.841749310 0.076631501 0.084293433
0.894972861 0.071036376 0.084730491
0.000052500 0.094291754 0.077876873
0.046973437 0.102074996 0.081144691
0.102950618 0.110191621 0.083712503
0.168900326 0.118956447 0.086645752
0.238466248 0.127163619 0.087683871
0.306450963 0.134622261 0.087538563
0.370238513 0.141088888 0.087046504
0.429793447 0.146275371 0.086592436
0.486424297 0.150073111 0.086222872
0.541470110 0.152488068 0.085849375
0.595812380 0.153561741 0.085443877
0.649934351 0.153340310 0.085113317
0.703939676 0.151780114 0.084982380
0.757762849 0.148679703 0.085014626
0.811617911 0.143801391 0.085218385
0.864831030 0.137296692 0.085447192
0.917718887 0.130632877 0.085705750
0.000489375 0.140705198 0.085199937
0.051623315 0.151649937 0.088793188
0.111210622 0.162928075 0.091412634
0.178519011 0.174492702 0.093076751
0.248080552 0.184966519 0.094628498
0.315663069 0.193758816 0.094610810
0.379884899 0.201192200 0.093800001
0.440694898 0.207136512 0.092818439
0.499114692 0.211484507 0.091849752
0.556188107 0.214264259 0.090877317
0.612512171 0.215602070 0.089876436
0.668357790 0.215635270 0.088923439
0.723721206 0.214359939 0.088167623
0.778465152 0.211557880 0.087691441
0.832723022 0.206942707 0.087477684
0.885903955 0.200611264 0.087381631
0.938451946 0.193917453 0.087376192
0.001769000 0.191081613 0.094824500
0.059093315 0.204573393 0.097987816
0.122783124 0.218217015 0.099924505
0.191014260 0.231491134 0.099908501
0.259462029 0.243616760 0.099329874
0.324820757 0.253623754 0.099693626
0.387621254 0.261359125 0.099152371
0.448677391 0.267322749 0.098088369
0.508369386 0.271624148 0.096923754
0.567168713 0.274416834 0.095718190
0.625296116 0.275925517 0.094421998
0.682775021 0.276348263 0.093064621
0.739488780 0.275686979 0.091844752
0.795257807 0.273699939 0.090972811
0.850187182 0.270054728 0.090438373
0.903797030 0.264691323 0.090096757
