luts/1779158123158-CLassicFilm02.cube
TITLE "17x17x17 Adobe/IRIDAS cube 3D LUT exported with GrossGrade v0.2.2 (beta) 64 bit"
DOMAIN_MIN 0 0 0
DOMAIN_MAX 1 1 1
LUT_3D_SIZE 5
0.000000000 0.001390000 0.000000000
0.216977507 0.008966500 0.000000000
0.498553991 0.010470500 0.000000000
0.760085225 0.007557500 0.000000000
0.974277020 0.004018000 0.000000000
0.000000000 0.165173754 0.051960249
0.240472496 0.216134742 0.000997750
0.534759283 0.237611756 0.000000000
0.806411743 0.249049991 0.000000000
0.993783772 0.253926009 0.000000000
0.012698002 0.384646535 0.039685000
0.264670014 0.450296998 0.020411501
0.561172009 0.530991018 0.000015000
0.830870748 0.544312000 0.000312750
1.005117416 0.550392032 0.000694500
0.044559501 0.631331027 0.057394501
0.292462498 0.682181716 0.036609247
0.566741228 0.774362504 0.006208500
0.839920998 0.833128750 0.000797250
1.005980730 0.831590295 0.001208250
0.075153001 0.864130974 0.078685999
0.323185742 0.898327768 0.055544499
0.573301077 0.939566493 0.030891998
0.839503527 0.982491970 0.006435500
1.006044984 1.003039956 0.017638000
0.000000000 0.023675751 0.099892505
0.186102509 0.016928751 0.139956251
0.455500752 0.024861749 0.154336005
0.720970511 0.019662499 0.187065512
0.957201481 0.012132250 0.207986757
0.000000000 0.168195754 0.164100006
0.241324991 0.225515515 0.200857237
0.540963054 0.256646723 0.219506755
0.799056232 0.263680756 0.229573011
0.988214254 0.263463259 0.233521253
0.016297253 0.369008273 0.216201499
0.267469257 0.451276749 0.243495256
0.559856057 0.532153964 0.234546512
0.830502987 0.547669530 0.235633001
1.004961014 0.551424325 0.235090256
0.042741749 0.609998524 0.251809746
0.292189002 0.677365780 0.259596258
0.565033317 0.773382306 0.243443012
0.839585304 0.833094537 0.227283493
1.005946398 0.831649005 0.231532261
0.067210250 0.839614987 0.269457996
0.320238769 0.894162297 0.271761239
0.570237041 0.938982725 0.266114265
0.836550474 0.982221961 0.239181504
1.006047010 1.003039002 0.219995007
0.000125500 0.041521497 0.278270006
0.154138759 0.025797751 0.302784771
0.405529529 0.028480999 0.292975008
0.643382788 0.039844498 0.318892002
0.853407502 0.036542501 0.357628495
0.000000000 0.199006021 0.332096756
0.215616256 0.267512500 0.413106531
0.518786550 0.278176010 0.405776024
0.743817031 0.286194503 0.421794772
0.948408246 0.288278997 0.448342264
0.033132005 0.379468501 0.389901012
0.254171282 0.466194272 0.462297499
0.553771615 0.531427503 0.481169999
0.817533493 0.553980291 0.490606546
0.998298049 0.554766536 0.496793985
0.066100001 0.584965050 0.444964290
0.267947495 0.656768560 0.489286005
0.553648114 0.741714776 0.500200272
0.830636501 0.815813065 0.500311255
1.005409718 0.829941034 0.498501778
0.074213497 0.810701489 0.477405012
0.280731976 0.871335506 0.507830501
0.544231534 0.928589463 0.521373987
0.827755213 0.974249482 0.499046266
1.005522966 0.999835014 0.489036500
0.012034500 0.035547752 0.438729763
0.148449510 0.037422501 0.450904518
0.373721749 0.039375503 0.457575232
0.619811773 0.046111248 0.465436757
0.773247004 0.051211748 0.474609762
0.001262750 0.229990512 0.493924767
0.203008503 0.289205760 0.574186563
0.463676274 0.272344768 0.557332516
0.696007490 0.264344990 0.553120017
0.869236231 0.284442246 0.573711514
0.051169753 0.408591509 0.551784039
0.249202758 0.494065046 0.627748549
0.520900726 0.547861278 0.663273811
0.751796782 0.565272510 0.663698792
0.939575732 0.577417016 0.674646497
0.079647496 0.596551299 0.601766288
0.260174513 0.657019496 0.651219249
0.520414233 0.713459730 0.685897231
0.783759236 0.768562019 0.709569752
0.991236508 0.815881968 0.737172782
0.105878249 0.780301213 0.646311760
0.276081771 0.831195295 0.683316231
0.514160752 0.887437463 0.710012555
0.793184757 0.942646503 0.728027999
0.994858503 0.979565024 0.741959214
0.013110000 0.036295999 0.561541021
0.143696755 0.040593501 0.575998008
0.352512002 0.049048498 0.596883535
0.605242014 0.048731249 0.604297757
0.761596024 0.052189000 0.610804021
0.005614500 0.247287989 0.645690501
0.200869501 0.303539008 0.714031994
0.428718746 0.280279756 0.695062995
0.657113791 0.252011508 0.673061252
0.832685769 0.269501239 0.693195224
0.063550502 0.439016998 0.704667449
0.248277262 0.516460776 0.774913013
0.500572562 0.562223017 0.804018497
0.724214256 0.559573054 0.795750737
0.905317008 0.579858065 0.809442997
0.086792499 0.614215255 0.742935240
0.260075241 0.671544492 0.791802764
0.510360241 0.727012038 0.825838208
0.753632247 0.759660244 0.842527747
0.927240729 0.773456216 0.850060463
0.113135003 0.790300012 0.781983018
0.277130753 0.832128525 0.814985037
0.506086528 0.875147998 0.839411497
0.753967524 0.906581521 0.855807722
0.949199021 0.933492005 0.882505000
